docs/public/static/branding/companies/particl-dark.svg

<svg fill="none" height="24" viewBox="0 0 193 51" width="90.72" xmlns="http://www.w3.org/2000/svg" xmlns:xlink="http://www.w3.org/1999/xlink"><clipPath id="a"><path d="m0 0h193v50.4355h-193z"/></clipPath><g clip-path="url(#a)" fill="#fff"><g clip-rule="evenodd" fill-rule="evenodd"><path d="m47.0933 45.6112h6.4673v-13.3062h7.7359c3.0803 0 5.6755-.5533 7.711-1.6454 1.9545-1.0085 3.5628-2.5781 4.6184-4.5072 1.0368-1.9704 1.5634-4.169 1.5318-6.3951.031-2.2248-.4956-4.4219-1.5318-6.391-1.055-1.9234-2.6592-3.48891-4.608-4.49688-2.0273-1.10454-4.608-1.65784-7.6696-1.65784h-14.255zm13.6394-18.6942h-7.1783l.0062-14.2511h7.1452c1.8883 0 3.4347.3067 4.5975.9076 1.0861.5353 1.9697 1.4077 2.5186 2.4868.5498 1.1544.8237 2.4207.8001 3.699.0208 1.2781-.253 2.5438-.8001 3.6991-.5448 1.088-1.4228 1.9737-2.5061 2.5282-1.1525.6175-2.6947.9304-4.5831.9304z"/><path d="m82.3172 45.1781c1.6234.7232 3.3843 1.0859 5.1614 1.0631 1.6562 0 3.0969-.2466 4.2825-.7253 1.0867-.4241 2.0833-1.0499 2.9373-1.8443.524-.4952.9861-1.0518 1.3763-1.6579v3.5975h6.1663v-19.7635c0-2.1738-.383-3.9767-1.138-5.3589-.686-1.3098-1.7019-2.4182-2.9471-3.2162-1.1682-.7331-2.4576-1.2523-3.8078-1.5335-1.2452-.2656-2.514-.4045-3.7871-.4145-1.7343-.0056-3.4591.2558-5.1138.7751-1.6082.5039-3.0917 1.3422-4.353 2.4598-1.3241 1.2106-2.3221 2.735-2.902 4.4326l-.1077.2984 5.9283 1.3594.0891-.2238c.398-.9884 1.1588-1.9044 2.2056-2.6939 1.0467-.7896 2.5247-1.1916 4.3633-1.1916 1.7537 0 3.0927.4352 3.9675 1.2869.8747.8517 1.3204 2.0826 1.3204 3.6597v.1305c0 .5823-.2073.9885-.6219 1.2434-.4622.2756-1.2292.487-2.2656.6217-1.0862.1388-2.5248.3067-4.2805.4973-1.388.1726-2.7658.4202-4.127.7419-1.2987.2988-2.5462.7876-3.7021 1.4506-1.1081.6332-2.0357 1.5392-2.6947 2.6318-.6613 1.0983-.9992 2.5199-.9992 4.2275 0 1.9563.4581 3.641 1.3598 5.0129.9078 1.3732 2.1874 2.4599 3.6897 3.1333zm12.831-13.3912c.2803-.0821.554-.1853.8188-.3087l.0041 3.3032c-.0007 1.0874-.2958 2.1544-.854 3.0877-.5932.9936-1.4459 1.8067-2.4667 2.3521-1.0758.5947-2.3838.8973-3.9384.8973-1.5547 0-2.8606-.3689-3.8348-1.0362-.9743-.6672-1.451-1.6391-1.451-2.9716 0-.9409.255-1.7035.7566-2.2692.5663-.6147 1.2796-1.0753 2.0728-1.3387.9601-.3336 1.951-.571 2.958-.7087.4726-.0518 1.0592-.1264 1.7681-.2238.709-.0974 1.4303-.2073 2.16-.3295.6777-.1089 1.3479-.2605 2.0065-.4539z"/><path d="m107.312 45.6112h6.233v-18.1471c-.031-1.1323.258-2.2503.833-3.226.576-.9757 1.415-1.7695 2.421-2.2904 1.072-.5621 2.268-.8471 3.478-.8289.582.0002 1.164.0348 1.741.1036l.067-.5575c-.01-.0012-.021-.0024-.031-.0036l.045-4.9771.019-.372c-.485-.027-.91-.0415-1.262-.0415-1.698-.0201-3.361.478-4.768 1.4278-1.208.8083-2.155 1.9501-2.726 3.2867v-4.2938h-6.05z"/><path d="m131.784 43.7876c1.569 1.4713 3.683 2.2173 6.285 2.2173.702-.0013 1.402-.0567 2.095-.1657.656-.097 1.302-.2488 1.932-.4539l.193-.0642v-5.3403l-.336.0663c-.265.0539-1.243.1471-1.768.1969l-.319.0311c-1.646.1699-2.805-.0912-3.426-.7875-.51-.5658-.769-1.4962-.769-2.7665v-15.8718h6.04v-5.1579h-6.04v-6.98364h-6.263v6.98364h-4.28v5.1579h4.28v17.0219c0 2.4515.807 4.4451 2.376 5.9164z"/><path d="m147.318 45.6112h6.235v-29.9198h-6.235z"/><path d="m147.384 12.038h6.103v-6.10087h-6.103z"/><path d="m163.681 43.8892c1.936 1.0755 4.369 1.6205 7.238 1.6205 1.766.0275 3.523-.253 5.193-.8289 1.418-.4976 2.71-1.2997 3.785-2.35 1.022-1.0234 1.801-2.2635 2.28-3.6286.511-1.5012.762-3.0789.742-4.6647v-.2798h-5.993v.2798c.032 1.1865-.19 2.3661-.649 3.4607-.387.8895-1.044 1.6352-1.878 2.1324-.829.4911-1.94.7419-3.316.7419-1.588 0-2.906-.3419-3.908-1.003-1.001-.6611-1.749-1.6744-2.257-3.0877s-.763-3.2183-.763-5.3631v-.918c0-2.2485.274-4.1115.788-5.4668.514-1.3552 1.275-2.3769 2.261-3.04.987-.6632 2.212-1.0009 3.663-1.0009 1.381 0 2.513.2341 3.362.6921.836.4515 1.493 1.1724 1.866 2.0454.415.9283.622 2.1469.622 3.5975v.2797h6.206v-.2797c.025-1.6558-.225-3.3043-.74-4.8782-.463-1.3801-1.254-2.6274-2.305-3.6348-1.079-1.0021-2.362-1.7573-3.762-2.2132-1.664-.5218-3.402-.7717-5.145-.7398-2.834 0-5.249.5574-7.212 1.6578s-3.472 2.8038-4.45 4.9984c-.978 2.1945-1.476 5.0274-1.476 8.4218s.481 6.2148 1.451 8.4487c.97 2.234 2.461 3.925 4.397 5.0005z"/><path d="m186.911 45.6112h6.235v-39.68859h-6.235z"/></g><path d="m33.6237 0v33.6237h-16.8119v-16.8119h-16.8118v-16.8118z"/><path d="m16.8118 33.6237h-16.8118v16.8098h16.8118z"/></g></svg>

<svg width="90.72" height="24" viewBox="0 0 193 51" fill="none" xmlns="http://www.w3.org/2000/svg"><g clip-path="url(#clip0_6072_83502)"><path fill-rule="evenodd" clip-rule="evenodd" d="M47.0933 45.6112H53.5606V32.305H61.2965C64.3768 32.305 66.972 31.7517 69.0075 30.6596C70.962 29.6511 72.5703 28.0815 73.6259 26.1524C74.6627 24.182 75.1893 21.9834 75.1577 19.7573C75.1887 17.5325 74.6621 15.3354 73.6259 13.3663C72.5709 11.4429 70.9667 9.87739 69.0179 8.86942C66.9906 7.76488 64.4099 7.21158 61.3483 7.21158H47.0933V45.6112ZM60.7327 26.917H53.5544L53.5606 12.6659H60.7058C62.5941 12.6659 64.1405 12.9726 65.3033 13.5735C66.3894 14.1088 67.273 14.9812 67.8219 16.0603C68.3717 17.2147 68.6456 18.481 68.622 19.7593C68.6428 21.0374 68.369 22.3031 67.8219 23.4584C67.2771 24.5464 66.3991 25.4321 65.3158 25.9866C64.1633 26.6041 62.6211 26.917 60.7327 26.917Z" fill="white"></path><path fill-rule="evenodd" clip-rule="evenodd" d="M82.3172 45.1781C83.9406 45.9013 85.7015 46.264 87.4786 46.2412C89.1348 46.2412 90.5755 45.9946 91.7611 45.5159C92.8478 45.0918 93.8444 44.466 94.6984 43.6716C95.2224 43.1764 95.6845 42.6198 96.0747 42.0137V45.6112H102.241V25.8477C102.241 23.6739 101.858 21.871 101.103 20.4888C100.417 19.179 99.4011 18.0706 98.1559 17.2726C96.9877 16.5395 95.6983 16.0203 94.3481 15.7391C93.1029 15.4735 91.8341 15.3346 90.561 15.3246C88.8267 15.319 87.1019 15.5804 85.4472 16.0997C83.839 16.6036 82.3555 17.4419 81.0942 18.5595C79.7701 19.7701 78.7721 21.2945 78.1922 22.9921L78.0845 23.2905L84.0128 24.6499L84.1019 24.4261C84.4999 23.4377 85.2607 22.5217 86.3075 21.7322C87.3542 20.9426 88.8322 20.5406 90.6708 20.5406C92.4245 20.5406 93.7635 20.9758 94.6383 21.8275C95.513 22.6792 95.9587 23.9101 95.9587 25.4872V25.6177C95.9587 26.2 95.7514 26.6062 95.3368 26.8611C94.8746 27.1367 94.1076 27.3481 93.0712 27.4828C91.985 27.6216 90.5464 27.7895 88.7907 27.9801C87.4027 28.1527 86.0249 28.4003 84.6637 28.722C83.365 29.0208 82.1175 29.5096 80.9616 30.1726C79.8535 30.8058 78.9259 31.7118 78.2669 32.8044C77.6056 33.9027 77.2677 35.3243 77.2677 37.0319C77.2677 38.9882 77.7258 40.6729 78.6275 42.0448C79.5353 43.418 80.8149 44.5047 82.3172 45.1781ZM95.1482 31.7869C95.4285 31.7048 95.7022 31.6016 95.967 31.4782L95.9711 34.7814C95.9704 35.8688 95.6753 36.9358 95.1171 37.8691C94.5239 38.8627 93.6712 39.6758 92.6504 40.2212C91.5746 40.8159 90.2666 41.1185 88.712 41.1185C87.1573 41.1185 85.8514 40.7496 84.8772 40.0823C83.9029 39.4151 83.4262 38.4432 83.4262 37.1107C83.4262 36.1698 83.6812 35.4072 84.1828 34.8415C84.7491 34.2268 85.4624 33.7662 86.2556 33.5028C87.2157 33.1692 88.2066 32.9318 89.2136 32.7941C89.6862 32.7423 90.2728 32.6677 90.9817 32.5703C91.6907 32.4729 92.412 32.363 93.1417 32.2408C93.8194 32.1319 94.4896 31.9803 95.1482 31.7869Z" fill="white"></path><path fill-rule="evenodd" clip-rule="evenodd" d="M107.312 45.6112H113.545V27.4641C113.514 26.3318 113.803 25.2138 114.378 24.2381C114.954 23.2624 115.793 22.4686 116.799 21.9477C117.871 21.3856 119.067 21.1006 120.277 21.1188C120.859 21.119 121.441 21.1536 122.018 21.2224L122.085 20.6649C122.075 20.6637 122.064 20.6625 122.054 20.6613L122.099 15.6842L122.118 15.3122C121.633 15.2852 121.208 15.2707 120.856 15.2707C119.158 15.2506 117.495 15.7487 116.088 16.6985C114.88 17.5068 113.933 18.6486 113.362 19.9852V15.6914H107.312V45.6112Z" fill="white"></path><path fill-rule="evenodd" clip-rule="evenodd" d="M131.784 43.7876C133.353 45.2589 135.467 46.0049 138.069 46.0049C138.771 46.0036 139.471 45.9482 140.164 45.8392C140.82 45.7422 141.466 45.5904 142.096 45.3853L142.289 45.3211V39.9808L141.953 40.0471C141.688 40.101 140.71 40.1942 140.185 40.244L139.866 40.2751C138.22 40.445 137.061 40.1839 136.44 39.4876C135.93 38.9218 135.671 37.9914 135.671 36.7211V20.8493H141.711V15.6914H135.671V8.70776H129.408V15.6914H125.128V20.8493H129.408V37.8712C129.408 40.3227 130.215 42.3163 131.784 43.7876Z" fill="white"></path><path fill-rule="evenodd" clip-rule="evenodd" d="M147.318 45.6112H153.553V15.6914H147.318V45.6112Z" fill="white"></path><path fill-rule="evenodd" clip-rule="evenodd" d="M147.384 12.038H153.487V5.93713H147.384V12.038Z" fill="white"></path><path fill-rule="evenodd" clip-rule="evenodd" d="M163.681 43.8892C165.617 44.9647 168.05 45.5097 170.919 45.5097C172.685 45.5372 174.442 45.2567 176.112 44.6808C177.53 44.1832 178.822 43.3811 179.897 42.3308C180.919 41.3074 181.698 40.0673 182.177 38.7022C182.688 37.201 182.939 35.6233 182.919 34.0375V33.7577H176.926V34.0375C176.958 35.224 176.736 36.4036 176.277 37.4982C175.89 38.3877 175.233 39.1334 174.399 39.6306C173.57 40.1217 172.459 40.3725 171.083 40.3725C169.495 40.3725 168.177 40.0306 167.175 39.3695C166.174 38.7084 165.426 37.6951 164.918 36.2818C164.41 34.8685 164.155 33.0635 164.155 30.9187V30.0007C164.155 27.7522 164.429 25.8892 164.943 24.5339C165.457 23.1787 166.218 22.157 167.204 21.4939C168.191 20.8307 169.416 20.493 170.867 20.493C172.248 20.493 173.38 20.7271 174.229 21.1851C175.065 21.6366 175.722 22.3575 176.095 23.2305C176.51 24.1588 176.717 25.3774 176.717 26.828V27.1077H182.923V26.828C182.948 25.1722 182.698 23.5237 182.183 21.9498C181.72 20.5697 180.929 19.3224 179.878 18.315C178.799 17.3129 177.516 16.5577 176.116 16.1018C174.452 15.58 172.714 15.3301 170.971 15.362C168.137 15.362 165.722 15.9194 163.759 17.0198C161.796 18.1202 160.287 19.8236 159.309 22.0182C158.331 24.2127 157.833 27.0456 157.833 30.44C157.833 33.8344 158.314 36.6548 159.284 38.8887C160.254 41.1227 161.745 42.8137 163.681 43.8892Z" fill="white"></path><path fill-rule="evenodd" clip-rule="evenodd" d="M186.911 45.6112H193.146V5.92261H186.911V45.6112Z" fill="white"></path><path d="M33.6237 0V33.6237H16.8118V16.8118H0V0H33.6237Z" fill="white"></path><path d="M16.8118 33.6237H0V50.4335H16.8118V33.6237Z" fill="white"></path></g><defs><clipPath id="clip0_6072_83502"><rect width="193" height="50.4355" fill="white"></rect></clipPath></defs></svg>
